src/assets/img/icon-volcano.svg

<?xml version="1.0" encoding="UTF-8"?>
<svg width="64px" height="64px" viewBox="0 0 64 64" version="1.1" xmlns="http://www.w3.org/2000/svg" xmlns:xlink="http://www.w3.org/1999/xlink">
    <!-- Generator: Sketch 47.1 (45422) - http://www.bohemiancoding.com/sketch -->
    <title>icon-volcano</title>
    <desc>Created with Sketch.</desc>
    <defs></defs>
    <g id="Page-1" stroke="none" stroke-width="1" fill="none" fill-rule="evenodd">
        <g id="icon-volcano" fill-rule="nonzero" fill="#000000">
            <path d="M3.69802729,31.6014035 C1.65888499,31.6014035 0,29.9423938 0,27.9033762 C0,25.8643587 1.65888499,24.2053489 3.69802729,24.2053489 L16.876538,24.2053489 C17.4334503,24.2053489 17.8850682,24.6567173 17.8850682,25.2138791 C17.8850682,25.7710409 17.433575,26.2224094 16.876538,26.2224094 L3.69802729,26.2224094 C2.77108772,26.2224094 2.01706043,26.9764366 2.01706043,27.9033762 C2.01706043,28.8303158 2.77108772,29.5843431 3.69802729,29.5843431 L13.1112671,29.5843431 C13.6681793,29.5843431 14.1197973,30.0357115 14.1197973,30.5928733 C14.1197973,31.1500351 13.6683041,31.6014035 13.1112671,31.6014035 L3.69802729,31.6014035 Z M35.9718674,61.8581832 C36.5290292,61.8581832 36.9803977,62.3095517 36.9803977,62.8667135 C36.9803977,63.4238752 36.5290292,63.8752437 35.9718674,63.8752437 L1.00853021,63.8752437 C0.451617934,63.8752437 0,63.4238752 0,62.8667135 C0,62.3095517 0.451617934,61.8581832 1.00853021,61.8580585 L1.74920858,61.8580585 C1.49083821,61.3534191 1.34474854,60.7819103 1.34474854,60.1770916 L1.34474854,59.5047797 C1.34474854,54.8704561 4.7242729,51.1001949 8.87815984,51.1001949 C11.5203743,51.1001949 13.9804444,52.6729981 15.3321793,55.167501 C15.5536218,55.1455439 15.7751891,55.1345653 15.995883,55.1345653 C18.5734737,55.1345653 20.9438441,56.5792437 22.3367485,58.9992671 C22.6147057,59.4820741 22.448655,60.0986199 21.965848,60.3764522 C21.4826667,60.6542846 20.8662456,60.4881092 20.588538,60.0054269 C19.5600468,58.2185419 17.8431501,57.1517505 15.995883,57.1517505 C15.6543002,57.1517505 15.3081014,57.1896764 14.9666433,57.2645302 C14.4935673,57.3682027 14.0141287,57.1214347 13.8236257,56.6764288 C12.883462,54.4810916 10.9882885,53.1173801 8.87803509,53.1173801 C5.83635088,53.1173801 3.36180897,55.9829084 3.36180897,59.5049045 L3.36180897,60.1772164 C3.36180897,61.1041559 4.11583626,61.8581832 5.04277583,61.8581832 L35.9718674,61.8581832 Z M40.8742924,5.91557115 C40.3918596,6.19490058 39.7750643,6.03034698 39.4961092,5.5482885 C39.1699961,4.98488889 38.9975828,4.34526316 38.9975828,3.69802729 C38.9975828,1.65900975 40.6565926,0 42.6956101,0 L60.1772164,0 C62.2162339,0 63.8752437,1.65900975 63.8753684,3.69815205 C63.8753684,5.73716959 62.2163587,7.39617934 60.1773411,7.39617934 L53.9690916,7.39617934 C53.4120546,7.39617934 52.9605614,6.94468616 52.9605614,6.38764912 C52.9605614,5.83061209 53.4119298,5.37911891 53.9690916,5.37911891 L60.1773411,5.37911891 C61.1042807,5.37911891 61.858308,4.62509162 61.858308,3.69815205 C61.858308,2.77121248 61.1042807,2.01718519 60.1773411,2.01718519 L42.6957349,2.01718519 C41.7687953,2.01718519 41.014768,2.77121248 41.014768,3.69815205 C41.014768,3.99507212 41.0909942,4.27739571 41.241575,4.53738791 C41.5209045,5.01944639 41.3562261,5.63636647 40.8742924,5.91557115 Z M39.6781287,56.4946589 C39.6550487,56.959501 39.3172086,57.3482417 38.8597271,57.4355712 C38.4029942,57.5235244 37.9453879,57.2862378 37.7525146,56.8628148 C36.717037,54.587384 34.4342456,53.1171306 31.9374971,53.1171306 C29.4407485,53.1171306 27.1580819,54.587384 26.1223548,56.8626901 C25.9564288,57.2273528 25.5942612,57.4534113 25.2048967,57.4535361 C25.1420195,57.4535361 25.0785185,57.4475478 25.0150175,57.4353216 C24.5579103,57.3479922 24.2199454,56.9591267 24.197115,56.4944094 C24.0293177,53.0925536 21.2272904,50.4276335 17.8178246,50.4276335 C17.412616,50.4276335 17.0020429,50.467306 16.5977076,50.5454035 C16.1488343,50.6323587 15.6985887,50.4067992 15.4989786,49.9957271 C14.42046,47.7738168 12.2172632,46.3933879 9.74945809,46.3933879 C6.60709552,46.3933879 3.95664717,48.639501 3.4471423,51.7342066 C3.35669396,52.283883 2.83708382,52.6550331 2.28815595,52.5655828 C1.73847953,52.4751345 1.36633138,51.9561481 1.45677973,51.4065965 C2.03340351,47.9048109 4.69183626,45.2281637 8.05327096,44.5459961 L21.3963353,22.0294737 C21.4034464,22.0172476 21.4106823,22.0051462 21.4180429,21.9930448 L21.6303782,21.6347446 C22.435306,20.2766472 22.8606004,18.7243041 22.8606004,17.1456374 C22.8606004,15.8481715 23.9162885,14.7923587 25.2138791,14.7923587 L38.6612398,14.7923587 C39.9587057,14.7923587 41.0145185,15.8480468 41.0145185,17.1456374 C41.0145185,18.7243041 41.4399376,20.2766472 42.2447407,21.6346199 L43.9688733,24.5441871 C44.252694,25.0232515 44.0945029,25.6420429 43.6153138,25.9258635 C43.1363743,26.2099337 42.5177076,26.0514932 42.2336374,25.5723041 L40.5095049,22.6628616 C39.5204366,20.9937466 38.9974581,19.0859727 38.9974581,17.1455127 C38.9974581,16.96 38.8466277,16.8092943 38.6612398,16.8092943 L25.2138791,16.8092943 C25.0284912,16.8092943 24.8776608,16.9601248 24.8776608,17.1455127 C24.8776608,18.6543158 24.561653,20.1434074 23.955961,21.5159766 L26.5586277,21.5159766 C27.11554,21.5159766 27.5671579,21.967345 27.5671579,22.5245068 L27.5671579,27.903501 C27.5671579,28.8304405 28.3211852,29.5844678 29.2481248,29.5844678 C30.1750643,29.5844678 30.9290916,28.8304405 30.9290916,27.903501 L30.9290916,22.5245068 C30.9290916,21.9674698 31.3805848,21.5159766 31.9376218,21.5159766 L37.7424094,21.5159766 C38.2994464,21.5159766 38.7509396,21.967345 38.7509396,22.5245068 C38.7509396,23.0816686 38.2995712,23.533037 37.7424094,23.533037 L32.946152,23.533037 L32.946152,27.903501 C32.946152,29.9425185 31.2872671,31.6015283 29.2481248,31.6015283 C27.2089825,31.6015283 25.5500975,29.9425185 25.5500975,27.903501 L25.5500975,23.533037 L22.8502456,23.533037 L10.4792827,44.4087641 C13.144577,44.6451774 15.5732086,46.1632125 16.9556335,48.4554854 C17.2431969,48.4256686 17.531384,48.4106979 17.8178246,48.4106979 C21.4192904,48.4106979 24.5057622,50.6712827 25.6973099,53.8791423 C27.2674932,52.1416608 29.5264561,51.1001949 31.9376218,51.1001949 C34.3487875,51.1001949 36.6077505,52.1416608 38.1781832,53.8791423 C39.3698558,50.6711579 42.4563275,48.4106979 46.0576686,48.4106979 C46.3439844,48.4106979 46.6321715,48.4256686 46.9198596,48.4554854 C48.3021598,46.1632125 50.7307914,44.6451774 53.3962105,44.4087641 L49.230347,37.3788694 C48.9465263,36.8998051 49.1047173,36.2810136 49.5839064,35.997193 C50.0630955,35.7132476 50.6817622,35.8715634 50.9655828,36.3507524 L55.8258402,44.5522339 C58.8242339,45.1782612 61.3278441,47.4258713 62.2002651,50.4414815 C62.3550877,50.9765614 62.0469396,51.5358441 61.5118596,51.6906667 C60.9770292,51.8462378 60.4173723,51.5373411 60.2626745,51.0022612 C59.4774581,48.2888109 56.9538869,46.3936374 54.1257856,46.3936374 C51.6579805,46.3936374 49.4550331,47.7740663 48.3762651,49.9959766 C48.1767797,50.4070487 47.7257856,50.6326082 47.2775361,50.545653 C46.8729513,50.4675556 46.4626277,50.427883 46.0574191,50.427883 C42.6479532,50.427883 39.8459259,53.0926784 39.6781287,56.4946589 Z M25.2138791,11.4303002 C23.1747368,11.4303002 21.5158519,9.77116569 21.5158519,7.73214815 C21.5158519,5.6931306 23.1747368,4.03412086 25.2138791,4.03412086 L36.8122261,4.03412086 C37.3693879,4.03412086 37.8207563,4.48548928 37.8207563,5.04265107 C37.8207563,5.59981287 37.3693879,6.05118129 36.8122261,6.05118129 L25.2138791,6.05118129 C24.2869396,6.05118129 23.533037,6.80520858 23.533037,7.73214815 C23.533037,8.65908772 24.2870643,9.41311501 25.2140039,9.41311501 L48.0744795,9.41311501 C49.0014191,9.41311501 49.7554464,8.65908772 49.7554464,7.73214815 C49.7554464,7.43522807 49.6790955,7.15302924 49.5285146,6.89291228 C49.2493099,6.4108538 49.4138635,5.79393372 49.8957973,5.51472904 C50.3781053,5.23527485 50.9949006,5.40007797 51.2739805,5.8820117 C51.6000936,6.44541131 51.7725068,7.08503704 51.7725068,7.7322729 C51.7725068,9.77129045 50.1134971,11.4303002 48.0744795,11.4303002 L25.2138791,11.4303002 Z M62.8667135,61.8581832 C63.4238752,61.8581832 63.8752437,62.3095517 63.8752437,62.8668382 C63.8752437,63.424 63.4238752,63.8753684 62.8667135,63.8753684 L39.9388694,63.8753684 C39.3817076,63.8753684 38.9303392,63.424 38.9303392,62.8668382 C38.9303392,62.3098012 39.3817076,61.858308 39.9388694,61.858308 L58.8322183,61.858308 C59.7591579,61.858308 60.5131852,61.1042807 60.5131852,60.1773411 L60.5131852,59.5050292 C60.5131852,55.9830331 58.038768,53.1175049 54.9969591,53.1175049 C52.8865809,53.1175049 50.9916569,54.4810916 50.0513684,56.6763041 C49.8608655,57.1213099 49.3815517,57.3682027 48.9083509,57.2645302 C48.566768,57.1896764 48.2205692,57.1517505 47.8789864,57.1517505 C45.9723353,57.1517505 44.2257466,58.2716881 43.2068616,60.1476491 C42.9408811,60.6369435 42.329076,60.8182144 41.8391579,60.5524834 C41.349614,60.2865029 41.1683431,59.6743236 41.4341988,59.1847797 C42.8117583,56.6487329 45.2209279,55.1345653 47.8789864,55.1345653 C48.0996803,55.1345653 48.3214971,55.1455439 48.5429396,55.167501 C49.8945497,52.6731228 52.3546199,51.1003197 54.9970838,51.1003197 C59.1509708,51.1003197 62.5304951,54.8704561 62.5304951,59.5049045 L62.5304951,60.1772164 C62.5304951,60.7821598 62.3845302,61.3536686 62.1259103,61.8581832 L62.8667135,61.8581832 Z M60.1772164,26.894846 C62.2162339,26.894846 63.8751189,28.5538558 63.8751189,30.5928733 C63.8751189,32.6318908 62.2161092,34.2909006 60.1770916,34.2909006 L44.0402339,34.2909006 C42.0012164,34.2909006 40.3422066,32.6318908 40.3422066,30.5928733 C40.3422066,28.5538558 42.0012164,26.894846 44.0402339,26.894846 L55.0555945,26.894846 C55.6127563,26.894846 56.0641248,27.3462144 56.0641248,27.9033762 C56.0641248,28.460538 55.6127563,28.9119064 55.0555945,28.9119064 L44.0402339,28.9119064 C43.1132943,28.9119064 42.3592671,29.6659337 42.3592671,30.5928733 C42.3592671,31.5198129 43.1132943,32.2738402 44.0402339,32.2738402 L60.1772164,32.2738402 C61.1041559,32.2738402 61.8581832,31.5198129 61.8581832,30.5928733 C61.8581832,29.6659337 61.1041559,28.9119064 60.1772164,28.9119064 L58.7316647,28.9119064 C58.1745029,28.9119064 57.7231345,28.460538 57.7231345,27.9033762 C57.7231345,27.3462144 58.1745029,26.894846 58.7316647,26.894846 L60.1772164,26.894846 Z M30.9290916,37.316616 C30.9290916,36.7594542 31.3805848,36.3080858 31.9376218,36.3080858 C32.4946589,36.3080858 32.946152,36.7594542 32.946152,37.316616 L32.946152,47.6711423 C32.946152,48.2283041 32.4947836,48.6796725 31.9376218,48.6796725 C31.3807096,48.6796725 30.9290916,48.2283041 30.9290916,47.6711423 L30.9290916,37.316616 Z M22.852117,35.4578713 C23.1360624,34.9786823 23.754729,34.8204912 24.2337934,35.1043119 C24.7129825,35.3881326 24.8711735,36.0067992 24.5872281,36.4859883 L19.8058168,44.5543548 C19.6175595,44.8724834 19.2819649,45.0490136 18.9372632,45.0490136 C18.7626043,45.0490136 18.5854503,45.0034776 18.4241404,44.9079142 C17.9449513,44.6240936 17.7867602,44.0054269 18.0707057,43.5262378 L22.852117,35.4578713 Z M39.2878908,36.4859883 C39.0039454,36.0067992 39.1622612,35.3881326 39.6414503,35.1043119 C40.1205146,34.8203665 40.7391813,34.9786823 41.0231267,35.4578713 L45.804538,43.5263626 C46.0883587,44.0054269 45.9301676,44.6242183 45.4509786,44.908039 C45.2897934,45.0037271 45.1126394,45.0491384 44.9378558,45.0491384 C44.5932788,45.0491384 44.2576842,44.8723587 44.0693021,44.5544795 L39.2878908,36.4859883 Z" id="Shape"></path>
        </g>
    </g>
</svg>

<svg class="icon-volcano" width="64" height="64" xmlns="http://www.w3.org/2000/svg">
  <path d="M3.698 31.6C1.658 31.6 0 29.943 0 27.904c0-2.04 1.66-3.698 3.698-3.698h13.18c.555 0 1.007.452 1.007 1.01 0 .556-.45 1.007-1.008 1.007H3.697c-.926 0-1.68.754-1.68 1.68 0 .928.754 1.682 1.68 1.682h9.414c.56 0 1.01.452 1.01 1.01 0 .556-.45 1.007-1.01 1.007H3.7zm32.274 30.26c.557 0 1.008.452 1.008 1.01 0 .556-.45 1.007-1.008 1.007H1.01c-.558 0-1.01-.45-1.01-1.008s.452-1.01 1.01-1.01h.74c-.26-.51-.405-1.08-.405-1.68v-.68c0-4.64 3.38-8.41 7.533-8.41 2.642 0 5.102 1.57 6.454 4.07.222-.03.443-.04.664-.04 2.577 0 4.948 1.44 6.34 3.86.28.48.113 1.1-.37 1.37s-1.1.11-1.377-.37c-1.03-1.79-2.75-2.86-4.6-2.86-.34 0-.69.03-1.03.11-.47.1-.95-.15-1.14-.59-.94-2.2-2.84-3.56-4.95-3.56-3.04 0-5.52 2.86-5.52 6.38v.674c0 .926.75 1.68 1.68 1.68h30.93zm4.902-55.942c-.482.28-1.1.114-1.378-.368-.326-.563-.498-1.203-.498-1.85 0-2.04 1.66-3.698 3.698-3.698h17.48c2.04 0 3.7 1.66 3.7 3.698 0 2.04-1.66 3.698-3.7 3.698H53.97c-.558 0-1.01-.45-1.01-1.008 0-.557.452-1.01 1.01-1.01h6.207c.927 0 1.68-.753 1.68-1.68 0-.927-.753-1.68-1.68-1.68h-17.48c-.928 0-1.682.753-1.682 1.68 0 .297.076.58.227.84.28.48.114 1.098-.368 1.378zm-1.196 50.58c-.023.464-.36.852-.818.94-.457.088-.915-.15-1.107-.573-1.036-2.276-3.32-3.746-5.816-3.746s-4.78 1.47-5.815 3.74c-.166.36-.528.59-.917.59-.063 0-.126-.01-.19-.02-.457-.09-.795-.48-.818-.94-.168-3.4-2.97-6.07-6.38-6.07-.404 0-.815.04-1.22.11-.448.08-.898-.14-1.098-.55-1.08-2.22-3.29-3.6-5.75-3.6-3.15 0-5.8 2.24-6.31 5.34-.09.55-.61.92-1.16.83-.55-.09-.92-.61-.83-1.16.57-3.5 3.23-6.18 6.59-6.86l13.35-22.51.02-.04.21-.36c.8-1.36 1.23-2.91 1.23-4.49 0-1.3 1.05-2.35 2.35-2.35h13.45c1.3 0 2.35 1.06 2.35 2.36 0 1.58.42 3.13 1.23 4.49l1.72 2.91c.28.48.12 1.1-.36 1.38-.48.28-1.1.12-1.38-.36l-1.72-2.9c-.99-1.67-1.52-3.58-1.52-5.52 0-.19-.15-.34-.336-.34H25.21c-.187 0-.337.15-.337.33 0 1.51-.32 2.99-.926 4.37h2.603c.555 0 1.006.45 1.006 1.01v5.38c0 .92.755 1.68 1.68 1.68.93 0 1.683-.76 1.683-1.68v-5.38c0-.56.45-1.01 1-1.01h5.8c.55 0 1.01.45 1.01 1.01 0 .55-.45 1.01-1.01 1.01h-4.79v4.37c0 2.04-1.66 3.7-3.7 3.7s-3.7-1.66-3.7-3.7v-4.37h-2.7L10.48 44.41c2.665.235 5.093 1.753 6.476 4.045.287-.03.575-.044.862-.044 3.6 0 6.688 2.26 7.88 5.47 1.57-1.73 3.828-2.78 6.24-2.78 2.41 0 4.67 1.05 6.24 2.78 1.192-3.21 4.278-5.47 7.88-5.47.286 0 .574.02.862.05 1.382-2.29 3.81-3.81 6.476-4.04l-4.166-7.03c-.283-.48-.125-1.1.354-1.38.48-.28 1.098-.12 1.382.36l4.86 8.21c2.998.63 5.502 2.88 6.374 5.89.155.54-.153 1.1-.688 1.25-.535.16-1.095-.15-1.25-.69-.785-2.71-3.308-4.6-6.136-4.6-2.468 0-4.67 1.38-5.75 3.6-.2.41-.65.64-1.098.55-.405-.08-.815-.12-1.22-.12-3.41 0-6.212 2.67-6.38 6.07zM25.214 11.43c-2.04 0-3.698-1.66-3.698-3.698 0-2.04 1.66-3.698 3.698-3.698h11.598c.557 0 1.01.45 1.01 1.01 0 .556-.453 1.007-1.01 1.007H25.214c-.927 0-1.68.76-1.68 1.69s.753 1.68 1.68 1.68h22.86c.927 0 1.68-.75 1.68-1.68 0-.29-.075-.58-.225-.84-.28-.48-.12-1.1.36-1.37.48-.28 1.1-.11 1.38.37.32.57.5 1.21.5 1.85 0 2.04-1.66 3.7-3.7 3.7H25.21zm37.653 50.428c.557 0 1.008.452 1.008 1.01 0 .556-.45 1.007-1.008 1.007H39.94c-.558 0-1.01-.45-1.01-1.008 0-.557.452-1.01 1.01-1.01h18.89c.927 0 1.68-.753 1.68-1.68v-.672c0-3.522-2.473-6.387-5.515-6.387-2.11 0-4.005 1.363-4.946 3.558-.19.445-.67.692-1.15.59-.34-.076-.69-.114-1.03-.114-1.91 0-3.65 1.12-4.67 2.996-.27.49-.88.67-1.37.404-.49-.265-.67-.878-.41-1.367 1.38-2.536 3.78-4.05 6.44-4.05.22 0 .44.01.66.033 1.35-2.495 3.81-4.068 6.45-4.068 4.15 0 7.53 3.77 7.53 8.405v.672c0 .605-.15 1.177-.41 1.68h.74zm-2.69-34.963c2.04 0 3.698 1.66 3.698 3.698 0 2.04-1.66 3.698-3.698 3.698H44.04c-2.04 0-3.698-1.65-3.698-3.69s1.66-3.7 3.698-3.7h11.016c.557 0 1.008.45 1.008 1.01s-.45 1.01-1.008 1.01H44.04c-.927 0-1.68.76-1.68 1.68 0 .93.753 1.68 1.68 1.68h16.137c.927 0 1.68-.75 1.68-1.68 0-.92-.753-1.68-1.68-1.68h-1.445c-.557 0-1.01-.45-1.01-1.01 0-.55.453-1.01 1.01-1.01h1.445zM30.93 37.317c0-.558.45-1.01 1.008-1.01.557 0 1.008.452 1.008 1.01V47.67c0 .558-.45 1.01-1.008 1.01-.557 0-1.01-.452-1.01-1.01V37.318zm-8.078-1.86c.284-.478.903-.637 1.382-.353.48.284.637.903.353 1.382l-4.78 8.068c-.19.318-.525.495-.87.495-.174 0-.352-.05-.513-.15-.48-.29-.637-.91-.353-1.38l4.79-8.07zm16.436 1.03c-.284-.48-.126-1.1.353-1.383.48-.284 1.1-.125 1.39.354l4.78 8.068c.29.48.13 1.098-.35 1.382-.16.096-.33.14-.51.14-.34 0-.68-.176-.87-.494l-4.78-8.068z"/>
</svg>
